X:1
T:Le Cygne
T:Le Cygne
T:The Swan
T:Camille Saint-Saens
T:The Carnival of the Animals 1886
T:The Carnival of the Animals 1886
T:The Carnival of the Animals 1886
T:The Carnival of the Animals 1886
C:Camille Saint-Saens
Z:The Carnival of the Animals 1886
%%score 1 { 2 | 3 }
L:1/8
M:6/4
K:G
V:1 tenor nm="Violoncello" snm="Vc."
V:2 treble nm="Piano" snm="Pno."
V:3 bass 
V:1
"^Andantino grazioso" z12 |!p! (G2 F2 B,2) (E2 D2 G,2) | ((A,4 A,)B,) C4 z2 | %3
 E,4 F,G, A,B,CD(!tenuto!E!tenuto!F) | (B6 B) z z2 z2 | (G2 F2 B,2) (E2 D2 G,2) | %6
 ((^A,4 A,)B,) ^C6 | (F,3 !tenuto!^G,)^A,B, ^CDEF(!tenuto!^G!tenuto!^A) | (d6 d) z z2 z2 | %9
 (d2 B2 G2) (E2 F2 G2) | ((D4 D)E) F4 z2 | (c2 A2 =F2) (D2 E2 F2) | ((C4 C)D) E4 z2 | %13
!<(! (E2 A,2 B,2) C4 D!<)!E |!>(! (F6!>)! E4) z2 |!<(! (E2 A,2 B,2) ^C4 D!<)!E |!>(! =F6 ^F6!>)! | %17
!p! (G2 F2 B,2) (E2 D2 G,2) | ((A,4 A,)B,) C4 z2 | E,4 F,G, A,B,CD(!tenuto!E!tenuto!F) | %20
!<(! vuB12!<)! |!mf! (B2 A2 E2) (G2 F2 C2) |!pp!!<(! (E2 D2 G,2) (A,2 B,2!<)!!p! G,2) | %23
 !^!B,6 (C2 D2 B,2) | E6 (E2 F2 D2) |!pp! (G12 | (G6) G) z z4 | z12 |] %28
V:2
!pp! (B,/D/B/G/ B,/D/B/G/ B,/D/B/G/ B,/D/B/G/ B,/D/B/G/ B,/D/B/G/) | %1
 (B,/D/B/G/ B,/D/B/G/ B,/D/B/G/ B,/D/B/G/ B,/D/B/G/ B,/D/B/G/) | %2
 C/E/c/A/ C/E/c/A/ C/E/c/A/ C/E/c/A/ C/E/c/A/ C/E/c/A/ | %3
 C/E/c/A/ C/E/c/A/ C/E/c/A/ C/F/c/A/ C/F/c/A/ C/F/c/A/ | %4
 B,/D/B/G/ B,/D/B/G/ B,/D/B/G/ B,/D/B/G/ B,/D/B/G/ B,/D/B/G/ | %5
 B,/D/B/G/ B,/D/B/G/ B,/D/B/G/ B,/D/B/G/ B,/D/B/G/ B,/D/B/G/ | %6
 ^C/E/^c/^A/ C/E/c/A/ C/E/c/A/ C/E/c/A/ C/E/c/A/ C/E/c/A/ | %7
 B,/D/B/F/ B,/D/B/F/ B,/D/B/F/ ^A,/E/^A/F/ A,/E/A/F/ A,/E/A/F/ | %8
 D/F/B/F/ D/F/B/F/ D/F/B/F/ D/F/B/F/ D/F/B/F/ D/F/B/F/ | %9
 D/G/d/B/ D/G/d/B/ D/G/d/B/ ^C/E/^c/G/ C/E/c/G/ C/E/c/G/ | %10
 =C/D/=c/G/ C/D/c/G/ C/D/c/G/ C/D/c/G/ C/D/c/G/ C/D/c/G/ | %11
 C/=F/c/A/ C/F/c/A/ C/F/c/A/ B,/D/B/F/ B,/D/B/F/ B,/D/B/F/ | %12
 _B,/C/_B/=F/ B,/C/B/F/ B,/C/B/F/ B,/C/B/F/ B,/C/B/F/ B,/C/B/F/ | %13
 A,/E/A/E/ A,/E/A/E/ A,/E/A/E/ A,/E/A/E/ A,/E/A/E/ A,/E/A/E/ | %14
!>(! A,/D/A/F/ A,/D/A/F/ A,/D/A/!>)!F/ A,/C/A/E/ A,/C/A/E/ A,/C/A/E/ | %15
!<(! A,/B,/A/D/ A,/B,/A/D/ A,/B,/A/D/ A,/^C/A/E/ A,/C/A/E/ A,/C/A/!<)!E/ | %16
!>(! A,/D/A/=F/ B,/D/A/F/ C/D/A/F/ C/D/A/^F/ C/D/B/F/ C/D/c/F/!>)! | %17
!pp! B,/D/B/G/ B,/D/B/G/ B,/D/B/G/ B,/D/B/G/ B,/D/B/G/ B,/D/B/G/ | %18
 C/E/c/A/ C/E/c/A/ C/E/c/A/ C/E/c/A/ C/E/c/A/ C/E/c/A/ | %19
 C/E/c/A/ C/E/c/A/ C/E/c/A/ C/E/c/A/ C/E/c/A/ C/E/c/A/ | %20
!<(! B,/D/B/=F/ B,/D/B/F/ B,/D/B/A/ D/^G/d/B/ D/G/d/B/ D/G/d/B/!<)! | %21
!mp! C/E/c/A/ C/E/c/A/ C/E/c/A/ C/F/c/A/ C/F/c/A/ C/F/c/A/ | %22
!>(! B,/D/B/G/ B,/D/B/G/ B,/D/B/G/!>)!!pp! [A,CG]6 | B,/D/B/G/ D/G/d/B/ G/B/g/d/ z2 z4 | %24
 B,/E/B/G/ E/G/e/B/ G/B/g/e/ [DAc] z z4 | z2 e/g/e'/b/ d/g/d'/b/ B/e/b/g/ B/d/b/g/ e/g/e'/b/ | %26
 d/g/d'/b/ B/e/b/g/ B/d/b/g/ E/G/e/B/ D/G/d/B/ B,/D/B/G/ | B, z z2 z8 |] %28
V:3
!pp! (G,,D,G,D,G,,D, G,,D,G,D,G,,D,) | (G,,D,G,D,G,,D, G,,D,G,D,G,,D,) | %2
 G,,E,A,E,G,,E, G,,E,A,E,G,,E, | G,,E,A,E,G,,E, G,,D,A,D,G,,D, | G,,D,G,D,G,,D, G,,D,G,D,G,,D, | %5
 G,,D,G,D,G,,D, G,,D,G,D,G,,D, | G,,E,^A,E,G,,E, F,,E,A,E,F,,E, | F,,D,F,D,F,,D, F,,^C,F,C,F,,C, | %8
 B,,F,B,F,B,,F, B,,F,B,F,B,,F, | B,,D,B,D,B,,D, _B,,D,_B,D,B,,D, | A,,D,A,D,A,,D, D,,D,A,D,D,,D, | %11
 A,,C,A,C,A,,C, _A,,C,_A,C,A,,C, | G,,C,G,C,G,,C, C,,C,G,C,C,,C, | %13
 =F,,A,,=F,A,,F,,A,, E,,A,,E,A,,E,,A,, |!>(! D,,A,,D,A,,D,,!>)!A,, E,,A,,E,A,,E,,A,, | %15
!<(! =F,,A,,=F,A,,F,,A,, E,,A,,E,A,,E,,!<)!A,, |!>(! D,,A,,D,A,,D,,A,, C,C,,B,,B,,,A,,A,,,!>)! | %17
!pp! (G,,D,G,D,G,,D, G,,D,G,D,G,,D,) | G,,E,A,E,G,,E, G,,E,A,E,G,,E, | %19
 G,,E,A,E,G,,E, G,,D,A,D,G,,D, |!<(! G,,D,G,D,=F,,B,, E,,B,,^G,B,,E,,B,,!<)! | %21
!mp! A,,E,A,E,A,,E, A,,F,A,F,A,,F, |!>(! B,,D,G,D,B,,D,!>)!!pp! [E,,E,]6 | %23
{/D,,} D,G,B,G,DB, z2 z4 | [D,,D,]2 z2 z8 | z2[K:treble] bebd eBdBBE | %26
 BD[K:bass]EB,DB, B,E,B,D,G,D, | G,, z z2 z8 |] %28

